X:16
T:In the Merry Month of May”In G”. WHG.016
R:jig
S:W.H.Giles MS,Bampton,Oxfordshire,1839p17
O:England
H:donated by Mrs W.R.Kettlewell to VWML,Apr 1927.
A:Bampton, Oxfordshire
N:Repeats uncertain.
Z:PJHeadford – VMP 2009
M:6/8
L:1/8
Q:3/8=120
K:G
|:D|GAG A2B|c2B e2c|ded BAG|F2A AFD|
GAG A2B|c2B e2d|ded BAG|AGF G2:|
B|ABA A2B|cdc B2d|g2d g2d|dcB A2B|
ABA A2B|cdc B2d|g2d g2d|ded +D.C.+cBA|]

